!!!!SEGMENT: pl-wtm--r-730-17-m_moniuszko-stanislaw--piosnka-dziada.krn
!!!cenid: 18xx:1697
!!!COM: Moniuszko, Stanisław
!!!COM-rismID: pe30008351
!!!CDT: 1819/05/05-1872/06/04
!!!CNT: Polish
!!!OTL: Piosnka dziada
!!!PDT:
!!!AGN: Secular
!!!SMS-siglum: PL-Wtm
!!!SMS-shelfmark: R 730/17/M
!!!SMS-shelfwork: W
!!!SMS-variant:
!!!SMS-altvar:
!!!NIFC-rismSourceID: 1001099816
!!!NIFC-islandoraID:
!!!URL-pdf-islandora:
!!!URL-scan:
!!!ONB-nifc: Skan 0022, No. 769
!!!AIN: 1 forte 1 vox
!!!key:
**kern	**kern	**dynam	**kern	**text	**text	**text	**dynam
*part2	*part2	*part2	*part1	*part1	*part1	*part1	*
*staff3	*staff2	*	*staff1	*staff1	*staff1	*staff1	*
*	*	*	*	*verse1	*verse2	*verse3	*
*Iforte	*Iforte	*	*Ivox	*	*	*	*
*I"Fortepian	*I"Fortepian	*	*I"[Voice]	*	*	*	*
*I'pf	*I'pf	*	*I'[V]	*	*	*	*
*clefF4	*clefG2	*	*clefG2	*	*	*	*
*k[f#c#g#d#]	*k[f#c#g#d#]	*	*k[f#c#g#d#]	*	*	*	*
*E:	*E:	*	*E:	*	*	*	*
*M2/4	*M2/4	*	*M2/4	*	*	*	*
=1	=1	=1	=1	=1	=1	=1	=1
!	!	!LO:DY:b:t=pp.:rj	!LO:TX:i:a:B:t=Allegretto...	!	!	!	!
!LO:TX:a:t=P:problem=4, 8\right&colon; global	!LO:TX:a:t=P:problem=4, 8\right&colon; global	!	!LO:TX:a:t=P:problem=4, 8\right&colon; global	!	!	!	!
4B 4G# 4E\	4b 4g# 4e/	pp	2ryy	.	.	.	.
8BL 8G# 8E\	8bL 8g# 8e/	.	.	.	.	.	.
8BJ 8G# 8E\	8bJ 8g# 8e/	.	.	.	.	.	.
=2!|:	=2!|:	=2!|:	=2!|:	=2!|:	=2!|:	=2!|:	=2!|:
*^	*^	*	*	*	*	*	*
8B/L	4G# 4E\	4b 4g# 4e/	2rcc	.	2r	.	.	.	.
8B/	.	.	.	.	.	.	.	.	.
8B/	8ryy	8ryy	.	.	.	.	.	.	.
8B/J	8G# 8E\	8b 8g# 8e/	.	.	.	.	.	.	.
*v	*v	*	*	*	*	*	*	*	*
=3	=3	=3	=3	=3	=3	=3	=3	=3
4B 4G# 4E\	8bL 8g# 8e/	2rdd	.	2r	.	.	.	.
.	8b 8g# 8e/	.	.	.	.	.	.	.
8AL 8F# 8E\	8a 8f# 8e/	.	.	.	.	.	.	.
8BJ 8G# 8E\	8bJ 8g# 8e/	.	.	.	.	.	.	.
=4	=4	=4	=4	=4	=4	=4	=4	=4
!	!LO:S:s=1:note:problem=note-level slur	!	!	!	!	!	!	!
!	!LO:S:s=2:note:problem=note-level slur	!	!	!	!	!	!	!
!	!LO:S:s=3:note:problem=note-level slur	!	!	!	!	!	!	!
4c# 4A 4E\	(>4cc# (<4a [<4e/	2rdd	>	2r	.	.	.	.
!	!LO:S:s=1:note:problem=note-level slur	!	!	!	!	!	!	!
!	!LO:S:s=2:note:problem=note-level slur	!	!	!	!	!	!	!
!	!LO:S:s=3:note:problem=note-level slur	!	!	!	!	!	!	!
8B 8G# 8E\	8b) 8g#) 8e/]	.	]	.	.	.	.	.
8D#\	8r	.	.	.	.	.	.	.
=5	=5	=5	=5	=5	=5	=5	=5	=5
!	!	!	!LO:DY:b:rj	!	!	!	!	!LO:DY:b:rj
4c# 4C#\	4ee 4e/	2rdd	f	2r	.	.	.	f
8BL 8BB/	8dd#L 8e/	.	.	.	.	.	.	.
8AJ 8AA/	8cc#J 8e/	.	.	.	.	.	.	.
=6	=6	=6	=6	=6	=6	=6	=6	=6
*^	*	*^	*	*	*	*	*	*
*	*	*	*2\right	*	*	*	*	*	*	*
8G#/L	4GG#\	(>4b/	2e\	2rdd	.	2r	.	.	.	.
16F#/L	.	.	.	.	.	.	.	.	.	.
16E/JJ	.	.	.	.	.	.	.	.	.	.
8c#\L	4ryy	8a/L)	.	.	.	.	.	.	.	.
8B\J	.	8g#/J	.	.	.	.	.	.	.	.
*v	*v	*	*	*	*	*	*	*	*	*
*	*v	*v	*v	*	*	*	*	*	*
=7	=7	=7	=7	=7	=7	=7	=7
!LO:TX:t=P:problem=mixed beam	!	!	!	!	!	!	!
8BB/L	8f#L 8d#/	.	2ryy	.	.	.	.
8B\J	16bL 16d#/	.	.	.	.	.	.
.	16aJJ 16c#/	.	.	.	.	.	.
8BB/L	8g#L 8G#/	.	.	.	.	.	.
16C#/L	8f#J 8d# 8A/	.	.	.	.	.	.
16D#/JJ	.	.	.	.	.	.	.
=8	=8	=8	=8	=8	=8	=8	=8
*tremolo	*	*	*	*	*	*	*
*2\right	*	*	*	*	*	*	*
8E\L	8eL 8G#</	.	4r	.	.	.	.
8E\	8e 8c# 8G#</	.	.	.	.	.	.
!	!	!	!LO:TX:a:t=P:problem=8\right&colon; global	!	!	!	!
8E\	8e 8B< 8G#</	.	8b\	Czy	Nie	Tym	.
8E\J	8eJ 8B< 8G#</	.	8b\	o	za-	przy-	.
*Xtremolo	*	*	*	*	*	*	*
!!LO:LB:g=original
=9	=9	=9	=9	=9	=9	=9	=9
8EE\L	8eL 8B< 8G#</	.	8b\	desz-	-bo-	-nios-	.
8E\	8e 8c# 8G#</	.	8e/	-czu,	-li	-ła	.
8E\	8e 8B< 8G#</	.	8b\	czy	o	po-	.
8E\J	8eJ 8B< 8G#</	.	8b\	o	to	-wódź	.
=10	=10	=10	=10	=10	=10	=10	=10
!LO:TX:t=P:problem=mixed beam	!	!	!	!	!	!	!
8EE/L	8eL 8B< 8G#</	.	8b\	zim-	gło-	stra-	.
8E\	8e 8c# 8G#</	.	8e/	-nie,	-wa	-ty,	.
8E\	8e 8B< 8G#</	.	8e/	sko-	żyw-	na	.
8E\J	16eL 16B< 16G#</	.	8e/	-ro	-ność	tych	.
.	16d#/JJ	.	.	.	.	.	.
=11	=11	=11	=11	=11	=11	=11	=11
!LO:TX:t=P:problem=mixed beam	!	!	!	!	!	!	!
8AA/L	8c#L 8A</	.	8e/	znay-	pań-	z og-	.
8E\	8cc# 8a/	.	8cc#\	-dę	-ska	-niem	.
8E\	8cc# 8a/	.	8cc#\	cie-	czy	przy-	.
8E\J	8cc#J 8a/	.	8cc#\	-pły	u-	-szła	.
=12	=12	=12	=12	=12	=12	=12	=12
*^	*	*	*	*	*	*	*
8r	2E\	8cc#L 8a/	.	8cc#\	ką-	-bo-	szko-	.
*tremolo	*	*	*	*	*	*	*	*
8eL 8B 8G#\	.	8b 8g#/	.	8b\	-tek,	-ga;	-da:	.
8e 8B 8G#\	.	8b 8g#/	.	8g#/	gdy	każ-	nie	.
8eJ 8B 8G#\	.	16bL 16g#/	.	8b/	kiy	-dą	mam	.
*Xtremolo	*	*	*	*	*	*	*	*
.	.	16cc#JJ 16a/	.	.	.	.	.	.
=13	=13	=13	=13	=13	=13	=13	=13	=13
8r	2E\	8bL 8g#/	.	8b/	tor-	tor-	ro-	.
*tremolo	*	*	*	*	*	*	*	*
8d#L 8B 8F#\	.	8a 8f#/	.	8a/	-ba,	-ba	-li	.
8d# 8B 8F#\	.	8a 8f#/	.	8a/	bro-	mo-	nie	.
8d#J 8B 8F#\	.	16aL 16f#/	.	8a/	-da	-ja	mam	.
*Xtremolo	*	*	*	*	*	*	*	*
.	.	16bJJ 16g#/	.	.	.	.	.	.
=14	=14	=14	=14	=14	=14	=14	=14	=14
8r	2E\	8aL 8f#/	.	8a/	przy	scho-	cha-	.
*tremolo	*	*	*	*	*	*	*	*
8B/L	.	8g# 8e/	.	8g#/	mnie,	-wa:	-ty,	.
8B/	.	8g# 8e/	.	8g#/	już	dar	cóż	.
8B/J	.	8g#J 8e/	.	8g#/	mam	jed-	mi	.
*Xtremolo	*	*	*	*	*	*	*	*
*v	*v	*	*	*	*	*	*	*
=15	=15	=15	=15	=15	=15	=15	=15
8BB\L	8r	.	8g#/	ca-	-ne-	zro-	.
8B\J	8f# 8d#/	.	8f#/	-ły	-go	-bi	.
8BB\L	8.r	.	8.b/	móy	wszy-	o-	.
8B\J	.	.	.	.	.	.	.
.	16a 16f#/	.	16a/	ma-	-stko	-gień,	.
=16	=16	=16	=16	=16	=16	=16	=16
8e 8c#\	8g#/	.	8a/	-ią-	Bo-	wo-	.
16E\LL	8r	.	8g#/	-tek	-ga.	-da?	.
16D#\JJ	.	.	.	.	.	.	.
!	!	!LO:DY:b:rj	!	!	!	!	!
8G#L 8C#\	8cc#L 8e/	f	8cc#\	Po-	Kij	Złe	.
8G#J 8C#\	8cc#J 8e/	.	8cc#\	-głas-	móy	na	.
!!LO:LB:g=original
=17	=17	=17	=17	=17	=17	=17	=17
8G#L 8C#\	4cc# 4e/	.	8.b\	-kaw-	po-	do-	.
16E\L	.	.	.	.	.	.	.
16D#\JJ	.	.	16g#/	-szy	-móc	-bre	.
8G#L 8C#\	8cc#L 8e/	.	8cc#\	si-	kro-	mi	.
8G#J 8C#\	8cc#J 8e/	.	8cc#\	-wą	-kom	wy-	.
=18	=18	=18	=18	=18	=18	=18	=18
4G# 4C#\	4cc# 4e/	.	8cc#\	bro-	nie-	-cho-	.
.	.	.	8g#/	-dę,	-sie,	-dzi,	.
!	!	!LO:DY:b:rj	!	!	!	!	!
8C#\L	4g# 4e#X/	p	8.cc#\	i-	nie	mych	.
8c#\J	.	.	.	.	.	.	.
.	.	.	16b\	-dę	trze-	łach-	.
=19	=19	=19	=19	=19	=19	=19	=19
8F#\L	8aL 8f#/	.	8a/	śmia-	-ba	-ma-	.
8c#\	16bL 16g#/	.	16b\LL	-ło	mi	-nów	.
.	16cc#JJ 16a/	.	16cc#\JJ	.	.	.	.
8c#\	8bL 8g#/	.	8b/	w świat	przy	za	.
8c#\J	8aJ 8f#/	.	8a/	o	nim	nic	.
=20	=20	=20	=20	=20	=20	=20	=20
.	.	.	8qb/	.	.	.	.
8C#\L	8r	.	8a/	gło-	ko-	nie	.
8c#\J	8g# 8e/	.	8g#/	-dzie;	-ni;	dam;	.
!	!	!LO:DY:b:rj	!	!	!	!	!
8G#L 8C#/	8cc#L 8e/	f	8cc#\	Kto	od	czy	.
8G#J 8C#/	8cc#J 8e/	.	8cc#\	ma	ko-	kto	.
=21	=21	=21	=21	=21	=21	=21	=21
8C#\L	4cc# 4e/	.	8cc#\	ser-	-le-	um-	.
16E\L	.	.	8g#/	-ce	-gi	-rze,	.
16D#\JJ	.	.	.	.	.	.	.
8G#L 8C#/	8cc#L 8e/	.	8cc#\	czu-	w czar-	czy	.
8G#J 8C#/	8cc#J 8e/	.	8cc#\	-łe	-nym	się	.
=22	=22	=22	=22	=22	=22	=22	=22
8C#/	4cc# 4e/	.	8cc#\	mło-	le-	ro-	.
16e\LL	.	.	8g#/	-de,	-sie,	-dzi,	.
16d#\JJ	.	.	.	.	.	.	.
8c#\L	8g#L 8e/	.	8g#/	rzu-	od	ja	.
8cn\J	8g#J 8e/	.	8a/	-ci	psów	pa-	.
=23	=23	=23	=23	=23	=23	=23	=23
8B\L	8bL 8f# 8d#/	.	8b\	gro-	we	-cie-	.
8A\	8cc# 8f# 8d#/	.	8cc#\	-sza	wsi	-rze	.
8G#\	8b 8g# 8d#/	.	8b\	si-	mię	za-	.
8F#\J	8aJ 8d# 8B/	.	8a/	-wey	o-	-wsze	.
=24	=24	=24	=24	=24	=24	=24	=24
4E\	4g# 4d# 4B/	.	8a/	bro-	-bro-	prze-	.
.	.	.	8g#/	-dzie,	-ni,	-dam,	.
4E 4EE\	8bL 8g# 8d#/	.	8b/	rzu-	od	ja	.
.	8bJ 8g# 8dn/	.	8b/	-ci	psów	pa-	.
!!LO:PB:g=original
=25	=25	=25	=25	=25	=25	=25	=25
8r	8eL 8c#/	.	8b/	gro-	we	-cie-	.
!LO:TX:t=P:problem=mixed beam	!	!	!	!	!	!	!
8AA\L	8e 8cn 8A</	.	8e/	-sza	wsi	-rze	.
8BB\	8e 8B< 8G#</	.	8.g#/	si-	mię	za-	.
8BBB/J	8f#J 8d# 8B< 8A</	.	.	.	.	.	.
.	.	.	16f#/	-wey	o-	-wsze	.
=26	=26	=26	=26	=26	=26	=26	=26
.	.	.	8qf#/	.	.	.	.
4EE/	4e 4B< 4G#</	.	8e/	bro-	-bro-	prze-	.
.	.	.	8e/	-dzie.	-ni.	-dam.	.
!	!	!LO:DY:b:rj	!	!	!	!	!
8BL 8G# 8E\	8bL 8g# 8e/	pp	4r	.	.	.	.
8BJ 8G# 8E\	8bJ 8g# 8e/	.	.	.	.	.	.
=27:|!	=27:|!	=27:|!	=27:|!	=27:|!	=27:|!	=27:|!	=27:|!
*^	*	*	*	*	*	*	*
8B/L	4G# 4E\	4.b 4.g# 4.e/	.	2r	.	.	.	.
8B/	.	.	.	.	.	.	.	.
8B/	8ryy	.	.	.	.	.	.	.
8B/J	8G# 8E\	8b 8g# 8e/	.	.	.	.	.	.
*v	*v	*	*	*	*	*	*	*
=28	=28	=28	=28	=28	=28	=28	=28
4B 4G# 4E\	8bL 8g# 8e/	.	2r	.	.	.	.
.	8b 8g# 8e/	.	.	.	.	.	.
8AL 8F# 8E\	8a 8f# 8e/	.	.	.	.	.	.
8BJ 8G# 8E\	8bJ 8g# 8e/	.	.	.	.	.	.
=29	=29	=29	=29	=29	=29	=29	=29
!LO:N:vis=4.	!LO:N:vis=4.	!	!	!	!	!	!
4c# 4A 4E\	(>4cc# (>4a [4e/	.	2r	.	.	.	.
8B 8G# 8E\	8b) 8g#) 8e/]	.	.	.	.	.	.
8D#\	8r	.	.	.	.	.	.
=30	=30	=30	=30	=30	=30	=30	=30
4c# 4C#\	4ee 4e/	.	2r	.	.	.	.
8BL 8BB\	8dd#L 8e/	.	.	.	.	.	.
8AJ 8AA\	8cc#J 8e/	.	.	.	.	.	.
=31	=31	=31	=31	=31	=31	=31	=31
*^	*	*	*	*	*	*	*
*	*	*^	*	*	*	*	*	*
8G#/L	4GG#\	4b/	2e\	.	2r	.	.	.	.
16F#/L	.	.	.	.	.	.	.	.	.
16E/JJ	.	.	.	.	.	.	.	.	.
8c#\L	4ryy	8a/L	.	.	.	.	.	.	.
8B\J	.	8g#/J	.	.	.	.	.	.	.
*	*	*v	*v	*	*	*	*	*	*
*v	*v	*	*	*	*	*	*	*
=32	=32	=32	=32	=32	=32	=32	=32
8BB\L	8f#L 8d#/	.	2r	.	.	.	.
8B\J	16bL 16d#/	.	.	.	.	.	.
.	16aJJ 16c#/	.	.	.	.	.	.
8BB/L	8g#L 8B/	.	.	.	.	.	.
16C#/L	8f#J 8d# 8A/	.	.	.	.	.	.
16D#/JJ	.	.	.	.	.	.	.
=33	=33	=33	=33	=33	=33	=33	=33
8E\L	8eL 8G#</	.	2r	.	.	.	.
8BB\	16g#L 16B</	.	.	.	.	.	.
.	16f#JJ 16A</	.	.	.	.	.	.
8E\	8eL 8G#</	.	.	.	.	.	.
8BB\J	8bJ 8f# 8d# 8A</	.	.	.	.	.	.
=34	=34	=34	=34	=34	=34	=34	=34
8E\L	8eL 8G#</	.	2r	.	.	.	.
8BB\	16g#L 16B</	.	.	.	.	.	.
.	16f#JJ 16A</	.	.	.	.	.	.
8E\J	8eL 8G#</	.	.	.	.	.	.
8E 8EE/	8bJ 8g# 8e/	.	.	.	.	.	.
=35	=35	=35	=35	=35	=35	=35	=35
2BB^< 2EE;>/	2ee 2g#;>/	.	2r;>	.	.	.	.
==	==	==	==	==	==	==	==
*-	*-	*-	*-	*-	*-	*-	*-
!!!system-decoration: {(s1)(s2,s3)}
!!!RDF**kern: > = above
!!!RDF**kern: < = below
!!!EED: Antoni Szymański
!!!EEV: 2021-04-19
!!!ENC: Tomasz Grochalski
!!!END: 2021-04-01
